X: 1
T: Ciaran Tourish's Reel
M:2/2
L:1/8
C:Jerry Holland & Dougie MacDonald
S: BSFC Tune Book XXXI-14
Z: 2016 John Chambers <jc:trillian.mit.edu>
R:Reel
K:D
fg |:\
"D"a2fa "A7"g2e[gc] | "D"fd~d2 "D7"dAFA | "G"BG~G2 "A7"cAAg | "D"faaf "A7"g{f}ece |
"D"a2fa "A7"g2e[gc] | "D"fd~d2 "D7"dAFA | "G"BG~G2 "A7"cAAe | "A7"fage "D"d2 :|
|: [ec]d |\
"A7"[ce]aaf gfed | "A7"caaf g2fg | "D"ad~d2 agfg | "D"abaf "Em7"gfed |
"A7"caaf gfed | "A7"caaf g2fg | "D"abaf "Em7"gecd | "A7"eddc "D"d2 :|


